X: 204
T: Da duihua
L: 1/8
M: 2/4
K: G
d d e g [I:setbarnb 1]| 
d2B2 | 
d e d B | 
A GA2 | 
d d e g | 
d2B2 | 
d e d B | 
A GA2 | 
d BA2 | 
G BA2 | 
d B A B | 
G BA2 | 
g2d2 | 
F> ED2 | 
G> B F E | 
D3z | 
d> d B d | 
g g/ e/d2 | 
B> d B d | 
g> ed2 | 
d d B A | 
G2E2 | 
d> B A G | 
D4 |]

@@@ Tune index: 9078
